X:139
T:The Little Swallow
N:"Tenderly"
B:O'Neill's 139
Z:Transcribed by henrik.norbeck@mailbox.swipnet.se
M:3/4
L:1/8
K:G
(3d/e/f/ gG \
|GF ED .G.G|.BB/c/ .dd/4e/4f/ gd \
|ec .AF/A/ .G.G|G2- G/G/B/d/ gG|
GF ED .G.G|.BB/c/ .d3d/e/f/ .gg/d/ \
|ed/c/ B/A/G/F/ GG|G3 G/A/ Bd|
g2 .fa/g/ f/e/g/e/|dB .GG/A/ Bd \
|g2 f/a/g/f/ ee|e2 e/d/e/f/ gG|
GF ED .G.G|Bc .dd/4e/4f/ gd \
|f/e/d/c/ B/A/G/F/ .G.G|G2- GG/A/ Bd|
g2 ~fa/g/ f/e/g/e/|cdB .GG/A/ Bd \
|g2 f/a/g/f/ ee|e2 e/d/e/f/ gG|
GF ED .G.G|Bc .dd/4e/4f/ gd \
|ec .AF/A/ GG|G2- G z z2||
"Cronan."Tg2 fga/g/e/d/ efed/B/|cd2 e/d/B/A/ BcBA/G/ \
|TG2 G/E/D/E/ .G.G|G2- G2||
